X:007
%%topmargin 3cm
T:Cat in the Hopper
B:The Nelson Music Collection
N:Newton F. Tolman & K. Dep. Gilbert
Z:Transcribed by Ralph Palmer
R:Jig
L:1/8
M:6/8
K:GDor
DGA B2 c | AFF FF2 A | G2 G g2 e | fdd d2 e |
fag fed | dcA B2 c | ded d2 c | dBG G2 ::
g | gdg gab | agf f2 a | gag gfe | fdd d2 e |
fag fed | dcA B2 c | ded d2 c | dBG G2 :|]

